X:1
T:American Patrol
T:American Patrol
T:F. W. Meacham, Op. 92
T:Public Domain
T:Public Domain
T:Public Domain
T:Public Domain
T:Public Domain
T:Public Domain
C:F. W. Meacham, Op. 92
Z:Public Domain
%%score { ( 1 3 ) | 2 }
L:1/8
Q:1/4=120
M:2/4
K:D
V:1 treble nm="Piano" snm="Pno."
V:3 treble 
V:2 bass 
V:1
{A,B,C} !wedge!D z z2 |{A,B,C} !wedge!D z z2 |{A,B,C} !wedge!D z{A,B,C} !wedge!D z | %3
{A,B,C} !wedge!D z z2 |{A,B,C} !wedge!D z z2 |{A,B,C} !wedge!D z{A,B,C} !wedge!D z | %6
{A,B,C} !wedge!D z z!ppp! (3(A,/B,/C/) |"^(Patrol heard in the distance)" DD (D/C/D/E/) | %8
 FF (F/^E/F/G/) | AA (A/^G/A/d/) | A3 F | G(G/F/) EG | F(F/E/) DF | EB, CD | E2 z (3(A,/B,/C/) | %15
 DD (D/C/D/E/) | FF (F/^E/F/G/) | AA (A/^G/A/d/) | A3 D | BA GF | ED C[A,D] | (EF/G/) [DF][CE] | %22
 D!ppp!!<(!(A,/B,/ C/D/E/F/)!<)! |!pp! [EG][EG] [EG][EG] | ([EG]/[^DF]/ [EG]2) [^E^G] | %25
 [FA][FA] (A/=G/F/G/) | A3 F | [EG][EG] [EG][EG] | ([EG]/[^DF]/ [EG]2) [^E^G] | %29
 [FA][FA] (A/=G/F/G/) | A3 [FA] | [GB][GB] [Bd]>[GB] | [FA][FA] (A/G/)F | [EG][EG] [^A,C][EG] | %34
 [DF][DF] (F/E/)D | [GB][GB] [Bd]>[GB] | [FA][FA] (A/G/)F | [EG][EG] C[CE] | DD D!p!F/F/ | !>!F4- | %40
 [B,DF]D/(C/ D/E/F/G/) | !>!A4- |!p!"_cresc." [DFA](F/"_poco"^E/ F/^G/A/B/ |"_a" !>!c4-) | %44
 [FAc]"_cresc."A/^G/ A/B/c/d/ | !>!e4- | [Ace] z z (3(A/B/c/) | %47
!mf!"^(Patrol gradually approaches)" d[Ad] ([Ad]/c/d/e/) | f[df] ([df]/^e/f/g/) | %49
 a[fa] ([fa]/^g/a/d'/) | [fa]3 [Af] | g(g/f/) eg | f(f/e/) df | [^Ge][GB] [Gc][Gd] | %54
 [=GAce]3 (3(A/B/c/) | d[Ad] ([Ad]/c/d/e/) | f[df] ([df]/^e/f/g/) | a[fa] ([fa]/^g/a/d'/) | %58
 [fa]3 d | !>![Bdb]!>![Ada] !>![Acg]!>![Adf] | !>![EAe]!>![E^Gd] !>![EAc]!>![DAd] | %61
 (!>![EBe]f/g/) !>![Adf]!>![GAce] | !>![FAd](A/B/ c/d/e/f/) | %63
"_cresc."!mf!"_cresc." [Aeg][Aeg] [Aeg][Aeg] | ([eg]/[^df]/ [eg]2) [^e^g] | %65
 [fa][fa] ([fa]/[=e=g]/[=df]/[eg]/) | [fa](A/B/ c/d/e/f/) | [Aeg][Aeg] [Aeg][Aeg] | %68
 ([eg]/[^df]/!mf! [eg]2)"_poco"!mf!"_cresc." [^e^g] | %69
 [fa]"_a"[fa] ([fa]/"_poco"[=e=g]/[=df]/[eg]/) |"_cresc." [fa]3 d | [Bgb][Bgb] [dbd']>[Bgb] | %72
 [Afa][Afa] ([fa]/[eg]/[df]) | [eg][eg] [^Ac][eg] | [df][df] ([df]/[ce]/[Bd]) | %75
!mf!"_cresc.""_cresc." [Bgb][Bgb] [dbd']>[Bgb] | [Afa][Afa] ([fa]/[eg]/[df]) | %77
 [Aeg][Aeg] [GAc][GAce] |!mf! [FAd] !>![dfad']/!>![dfad']/ !>![dfad'] z ||[K:G]!f! z4 | %80
 z2 z!f!"^(Patrol passing)" [Dd] | [Gg]2 [Gg]>[Gg] | [Aa]2 [dd']>[cc'] | [Bb] [Gg]3- | %84
 [Gg] z [Gg]>[Ff] | [Ee]2 [ee'][dd'] | [cc'][Bb] [Aa][Gg] | [Gg]4 | %88
 [Ff] z"^poco"!f!"_cresc." [Aa]>[Aa] |"^a" [Aa]2"^poco" [Aa]>[Aa] |"^cresc." [Aa]2 [Bb][^c^c'] | %91
 [dd'] [Aa]3 | [Aa] z [dd']>[dd'] | [^c^c'][Bb] [Aa][Gg] | [Ff][Ee] [Aa][G^c] | [Fd]2 [Fd]>[Fd] | %96
 [Fd] z df |!ff! [Aa]2 [Aa]>[Aa] | [Gg][Ff] [Ee][Dd] | [Dd] [Gg]3- | [Gg] z [Gg][Aa] | %101
 [Bb]2 [Bb]>[Bb] | [cc'][Bb] [Aa][Gg] | [Aa]4- | [Aa] z"_poco" [Bb]"_a"[cc'] | %105
"_poco" [dd']2"_cresc." [dd']>[dd'] | [cc'][Bb] [Aa][Gg] | [Ff] [Ee]3- | [Ee] z [ee']>[dd'] | %109
 [cc'][Bb] [Aa][Gg] | [Ff]2 [Ee][Ff] | [Gg]2 [GBdg]>[GBdg] | [GBdg] z [Fdf][Geg] | %113
!fff! [Afa]2 [Afa]>[Afa] | [Afa]2 [dbd']>[cac'] | [Bgb] z/ (D/ ^C/D/!<(!E/F/) | %116
 (G/A/B/=c/ d/e/f/g/!<)! | [Afa]2) [Afa]>[Afa] | [Afa]2 [dbd']>[cac'] | %119
 [Bgb]!ff!(D/!<(!E/ F/G/A/B/) | (c/d/e/f/ g/a/b/c'/!<)! | [dbd']2) [dbd']>[dbd'] | %122
 [cac'][Bgb] [Afa][Geg] | [Fdf] [Ece]3- | [Ece] z !>![fc'e']!>![dbd'] | %125
 !>![cac']!>![Bgb] !>![Aea]!>![Geg] | !>![Fdf]2 !>![Ece]!>![Fcf] | !>![GBg]2 !>![GBdg]>!>![GBdg] | %128
 !>![GBdg]2 z2 ||[K:D]"^(Bugle call)"!ff! !>!AA/A/ A/E/C/E/ | !>!AA/A/ A/E/A/c/ | %131
 e !>![Gdg]2 !>![Gdg] | [Gcg]!>![Gdg] [Gcg]!>![Gdg] | !>![Gcg] A,/^G,/ A,/G,/ A,/G,/ | %134
 A, A,/^G,/ A,/G,/ A,/G,/ | A, z[K:bass]{E,F,^G,} A, z |{E,F,^G,} A, z z2 | %137
"^(Drum call)"!f!{E,F,^G,} A,>A, A, z |{E,F,^G,} A,>A, A, z |{E,F,^G,} (3(A,^G,A,) (3(A,G,A,) | %140
 A,>A, A, z |{E,F,^G,} A,>A, A, z |{E,F,^G,} A,>A, A, z |{E,F,^G,} (3(A,^G,A,) (3(A,G,A,) | %144
 A,>A, A, z |[K:treble] !//-!A,2 ^G,2 | A, z z2 | !//-!A,2 ^G,2 | A, z z (3(A/!mf!B/c/) | %149
!mf! d[Ad] ([Ad]/c/d/e/) | f[df] ([df]/^e/f/g/) | a[fa] [fa]/^g/a/d'/ | %152
 [fa]3"_poco"!mf!"_dim." [Af] |"_a" g"_poco"g/f/ eg |"_dim." ff/e/ df | [^Ge][GB] [Gc][Gd] | %156
 [=GAce]3 (3(A/B/c/) | d[Ad] ([Ad]/c/d/e/) | f[df] ([df]/^e/f/g/) | a[fa] ([fa]/^g/a/d'/) | %160
 [fa]3 d | .[Bdb].[Ada] .[Acg].[Adf] | .[EAe].[E^Gd] .[EAc].[DAd] | (.[EBe]f/g/) .[Adf].[GAce] | %164
 .[FAd]3!p!"^(Patrol gradually retiring)" F/F/ | !>!F4- | [B,DF]D/(C/ D/E/F/G/) | !>!A4- | %168
 [DFA](F/^E/ F/^G/A/B/ | !>!c4-) | [FAc]A/^G/ A/B/c/d/ | !>!e4- | [Ace] (A,/B,/ C/D/E/F/) | %173
!pp! [EG][EG] [EG][EG] | ([EG]/[^DF]/ [EG]2) [^E^G] | [FA][FA] (A/=G/F/G/) | A3 F | %177
 [EG][EG] [EG][EG] | ([EG]/[^DF]/ [EG]2) [^E^G] | [FA][FA] (A/=G/F/G/) | %180
 A3"_poco"!pp!"_dim." [FA] |"_a" [GB][GB]"_poco" [Bd]>[GB] | [FA]"_dim."[FA] (A/G/)F | %183
 [EG][EG] [^A,C][EG] | [DF][DF] (F/E/)D | [GB][GB] [Bd]>[GB] | [FA][FA] (A/G/)F | [EG][EG] C[CE] | %188
 .D.D .D (3(A,/B,/C/) |!pp! .D.D (D/C/D/E/) | .F.F (F/^E/F/G/) | A4- | A z z (3(A,/B,/C/) | %193
 .D.D (D/C/D/E/) | .F.F (F/^E/F/G/) | A2- A z | z2 z (3(A,/B,/C/) |"^(Patrol disappears)" .D.D z2 | %198
 z2 z (3(A,/B,/C/) | .D.D z2 | z4 |{A,B,C} !wedge!D z z2 |{A,B,C} !wedge!D z z2 | %203
{A,B,C} !wedge!D z{A,B,C} !wedge!D z |{A,B,C} !wedge!D z z2 |{A,B,C} !wedge!D z z2 | %206
{A,B,C} !wedge!D z z2 |{A,B,C} !wedge!D z{A,B,C} !wedge!D z |{A,B,C} !wedge!D z z2 | z4!pppp! | %210
!pppp!"_dim." z4 | z4 | z4 | z4 | z4 |"^(Gone!)" !fermata!z4 |] %216
V:2
!pppp!{A,,B,,C,} !wedge!D, z z2 |{A,,B,,C,} !wedge!D, z z2 | %2
{A,,B,,C,} !wedge!D, z{A,,B,,C,} !wedge!D, z |{A,,B,,C,} !wedge!D, z z2 | %4
{A,,B,,C,} !wedge!D, z z2 |{A,,B,,C,} !wedge!D, z{A,,B,,C,} !wedge!D, z | %6
{A,,B,,C,} !wedge!D, z z z | D,A, A,,A, | D,A, A,,A, | D,A, A,,A, | D,A, A,,A, | C,A, A,,A, | %12
 D,A, A,,A, | B,,^G, E,G, | B,,=G, E,G, | D,A, A,,A, | D,A, A,,A, | D,A, A,,A, | D,A, A,,A, | %19
 G,F, E,D, | C,B,, A,,F,, | G,,2 A,,A, | D, z z2 | C,[G,A,] A,,[G,A,] | C,[G,A,] A,,[G,A,] | %25
 D,[F,A,] A,,[F,A,] | D,[F,A,] A,,[F,A,] | C,[G,A,] A,,[G,A,] | C,[G,A,] A,,[G,A,] | %29
 D,[F,A,] A,,[F,A,] | D,[F,A,] A,,[F,A,] | G,,[G,B,] D,[G,B,] | D,[F,A,] A,,[F,A,] | %33
 ^A,,[E,F,] F,,[E,F,] | B,,[D,F,] B,,[D,F,] | G,,[G,B,] D,[G,B,] | D,[F,A,] A,,[F,A,] | %37
 C,[G,A,] A,,[G,A,] | [D,F,A,][D,F,A,] [D,F,A,] z | z [F,,F,] [F,,F,][F,,F,] | [B,,,B,,] z z2 | %41
 z [A,,A,] [A,,A,][A,,A,] | [D,,D,] z z2 | z [C,C] [C,C][C,C] | [F,,F,] z z2 | z [E,E] [E,E][E,E] | %46
 [A,,A,] z z2 | D,[F,A,D] A,,[F,A,D] | D,[F,A,D] A,,[F,A,D] | D,[F,A,D] A,,[F,A,D] | %50
 D,[F,A,D] A,,[F,A,D] | E,[G,A,C] A,,[G,A,C] | D,[F,A,D] A,,[F,A,D] | E,[^G,B,D] E,[G,B,D] | %54
 z [A,,,A,,] [B,,,B,,][C,,C,] | [D,,D,][F,A,D] A,,[F,A,D] | D,[F,A,D] A,,[F,A,D] | %57
 D,[F,A,D] A,,[F,A,D] | D,[F,A,D] [F,A,D] z | !>![G,G]!>![F,F] !>![E,E]!>![D,D] | %60
 !>![C,C]!>![B,,B,] !>![A,,A,]!>![F,,F,] | !>![G,,G,]2 !>![A,,A,]!>![A,,A,] | %62
 !>![D,,D,]!>![A,,A,] !>![F,,F,]!>![D,,D,] | !>![A,,,A,,][G,A,C] A,,[G,A,C] | %64
 E,[G,A,C] A,,[G,A,C] | D,[F,A,D] A,,[F,A,D] | D,[F,A,D] A,,[F,A,D] | E,[G,A,C] A,,[G,A,C] | %68
 E,[G,A,C] A,,[G,A,C] | D,[F,A,D] A,,[F,A,D] | D,[F,A,D] [F,A,D] z | G,,[D,G,B,] G,,[D,G,B,] | %72
 D,[F,A,D] D,[F,A,D] | F,[^A,CE] F,[A,CE] | B,,[F,B,D] B,,[F,B,D] | G,,[D,G,B,] G,,[D,G,B,] | %76
 D,[F,A,D] D,[F,A,D] | E,[G,A,C] A,,[G,A,C] | [D,F,A,D] !>![D,,D,]/!>![D,,D,]/ !>![D,,D,] z || %79
[K:G] G,,[G,B,] D,[G,B,] | G,,[G,B,] B,,[G,B,] | G,,[G,B,] D,[G,B,] | [D,,D,][F,A,C] D,[F,A,C] | %83
 G,,[G,B,] D,[G,B,] | G,,[G,B,] D,[G,B,] | C,[E,G,C] B,,[E,^G,D] | A,,[E,A,C] C,[E,A,C] | %87
 [D,,D,][G,B,] D,[G,B,] | [D,,D,][F,A,D] D,[F,A,D] | D,[F,A,D] A,,[F,A,D] | E,[G,A,^C] A,,[G,A,C] | %91
 D,[F,A,D] A,,[F,A,D] | D,[F,A,D] D,[F,A,D] | G,,[D,G,B,] G,,[D,G,B,] | A,,[G,A,^C] E,[G,A,C] | %95
 D,[F,A,D] D,[F,A,D] | D,[F,A,D] D,[F,A,D] | D,[F,A,C] D,[F,A,C] | [D,,D,][F,A,C] D,[F,A,C] | %99
 G,,[G,B,] D,[G,B,] | G,,[G,B,] D,[G,B,] | G,,[G,B,] D,[G,B,] | G,,[G,B,] D,[G,B,] | %103
 [D,,D,][F,A,C] D,[F,A,C] | [D,,D,][F,A,C] D,[F,A,C] | G,,[G,B,] D,[G,B,] | G,,[G,B,] D,[G,B,] | %107
 C,[E,G,C] B,,[E,^G,D] | A,,[E,A,C] C,[E,A,C] | [D,,D,][G,B,] D,[G,B,] | [D,,D,][F,A,C] D,[F,A,C] | %111
 G,,[G,B,] D,[G,B,] | G,,[G,B,] D,[G,B,] | [D,,D,][F,A,C] D,[F,A,C] | [D,,D,][F,A,C] D,[F,A,C] | %115
 G,,[G,B,] D,[G,B,] | G,,[G,B,] D,[G,B,] | [D,,D,][F,A,C] D,[F,A,C] | [D,,D,][F,A,C] D,[F,A,C] | %119
 G,,[G,B,] D,[G,B,] | G,,[G,B,] D,[G,B,] |!fff! G,,[G,B,] D,[G,B,] | G,,[G,B,] D,[G,B,] | %123
 C,[E,G,C] G,,[E,G,C] | C,[E,G,C] !>![F,,,F,,]!>![G,,,G,,] | %125
 !>![A,,,A,,]!>![B,,,B,,] !>![C,,C,]!>![^C,,^C,] | !>![D,,D,][F,A,=C] D,[F,A,C] | %127
 !>![G,B,]!fff!!<(!!>![G,,G,] !>![D,,D,]!>![B,,,B,,] |!fff! !>![G,,,G,,]!<)! z z2 || %129
[K:D] !>!A,A,/A,/ A,/E,/C,/E,/ | !>!A,A,/A,/ A,/E,/A,/C/ | E !>![_B,,,_B,,]2 !>![B,,,B,,] | %132
 [A,,,A,,]!>![_B,,,_B,,] [A,,,A,,]!>![B,,,B,,] | [A,,,A,,] A,,/^G,,/ A,,/G,,/ A,,/G,,/ | %134
 A,, A,,/^G,,/ A,,/G,,/ A,,/G,,/ | A,, z{E,,F,,^G,,} A,, z |{E,,F,,^G,,} A,, z z2 | %137
{E,,F,,^G,,} A,,>A,, A,, z |{E,,F,,^G,,} A,,>A,, A,, z |{E,,F,,^G,,} (3(A,,^G,,A,,) (3(A,,G,,A,,) | %140
 A,,>A,, A,, z |{E,,F,,^G,,} A,,>A,, A,, z |{E,,F,,^G,,} A,,>A,, A,, z | %143
{E,,F,,^G,,} (3(A,,^G,,A,,) (3(A,,G,,A,,) | A,,>A,, A,, z |!f! !//-!A,,2 ^G,,2 | %146
 A,,>[A,,,A,,] [A,,,A,,] z | !//-!A,,2 ^G,,2 | A,,>[A,,,A,,] [A,,,A,,] z | D,[F,A,D] A,,[F,A,D] | %150
 D,[F,A,D] A,,[F,A,D] | D,[F,A,D] A,,[F,A,D] | D,[F,A,D] A,,[F,A,D] | E,[G,A,C] A,,[G,A,C] | %154
 D,[F,A,D] A,,[F,A,D] | E,[^G,B,D] E,[G,B,D] | z !>![A,,,A,,] !>![B,,,B,,]!>![C,,C,] | %157
 [D,,D,][F,A,D] A,,[F,A,D] | D,[F,A,D] A,,[F,A,D] | D,[F,A,D] A,,[F,A,D] | D,[F,A,D] [F,A,D] z | %161
 .[G,G].[F,F] .[E,E].[D,D] | .[C,C].[B,,B,] .[A,,A,].[F,,F,] | .[G,,G,]2 .[A,,A,].[A,,A,] | %164
 .[D,,D,].A,, .[D,,D,] z | z [F,,F,] [F,,F,][F,,F,] | [B,,,B,,] z z2 | z [A,,A,] [A,,A,][A,,A,] | %168
 [D,,D,] z z2 | z [C,C] [C,C][C,C] | [F,,F,] z z2 | z [E,E] [E,E][E,E] | [A,,A,] z z2 | %173
 C,[G,A,] A,,[G,A,] | C,[G,A,] A,,[G,A,] | D,[F,A,] A,,[F,A,] | D,[F,A,] A,,[F,A,] | %177
 C,[G,A,] A,,[G,A,] | C,[G,A,] A,,[G,A,] | D,[F,A,] A,,[F,A,] | D,[F,A,] A,,[F,A,] | %181
 G,,[G,B,] D,[G,B,] | D,[F,A,] A,,[F,A,] | ^A,,F, F,,F, | B,,F, B,,F, | G,,[G,B,] D,[G,B,] | %186
 D,[F,A,] A,,[F,A,] | C,[G,A,] A,,[G,A,] | .[D,F,A,].[D,F,A,] .[D,F,A,] z | D,A, A,,A, | %190
 D,A, A,,A, | D,A, A,,A, | D,A, A,, z | D,A, A,,A, | D,A, A,,A, | D,A, A,,A, | D,A, A,, z | %197
 D,!ppp!A, A,,A, | D,A, A,, z | D,A, A,,A, | D,A, A,, z |{A,,B,,C,} !wedge!D, z z2 | %202
{A,,B,,C,} !wedge!D, z z2 |{A,,B,,C,} !wedge!D, z{A,,B,,C,} !wedge!D, z | %204
{A,,B,,C,} !wedge!D, z z2 |!pppp!{A,,B,,C,} !wedge!D, z z2 |{A,,B,,C,} !wedge!D, z z2 | %207
{A,,B,,C,} !wedge!D, z{A,,B,,C,} !wedge!D, z |{A,,B,,C,} !wedge!D, z z !wedge!A,, | %209
 !wedge!D, z z !wedge!A,, | !wedge!D,, z z !wedge!A,, |"^poco" !wedge!D, z"^a" z2 | %212
 !wedge![A,,,A,,] z"^poco" z2 |"^dim." !wedge![B,,,B,,] z z2 | !wedge![C,,C,] z z2 | %215
 !wedge![D,,D,] z !fermata!z2 |] %216
V:3
 x4 | x4 | x4 | x4 | x4 | x4 | x4 | x4 | x4 | x4 | x4 | x4 | x4 | x4 | x4 | x4 | x4 | x4 | x4 | %19
 DD (D/C/)D | A,(A,/^G,/) A,2 | B,2 x2 | x4 | x4 | x4 | x4 | x4 | x4 | x4 | x4 | x4 | x4 | x4 | %33
 x4 | x4 | x4 | x4 | x4 | x4 | z [^A,C] [B,D][CE] | x4 | z [CE] [DF][EG] | x4 | %43
 z [^E^G]"_poco" [FA][GB] | x4 | z [^GB] [Ac][Bd] | x4 | x4 | x4 | x4 | x4 | AA AA | AA AA | x4 | %54
 x4 | x4 | x4 | x4 | x4 | x4 | x4 | x4 | x4 | x4 | x4 | x4 | x4 | x4 | x4 | x4 | x4 | x4 | x4 | %73
 x4 | x4 | x4 | x4 | x4 | x4 ||[K:G] x4 | x4 | x4 | x4 | x4 | x4 | x4 | x4 | x4 | x4 | x4 | x4 | %91
 x4 | x4 | x4 | x4 | x4 | x4 | x4 | x4 | x4 | x4 | x4 | x4 | x4 | x4 | x4 | x4 | x4 | x4 | x4 | %110
 x4 | x4 | x4 | x4 | x4 | x4 | x4 | x4 | x4 | x4 | x4 | x4 | x4 | x4 | x4 | x4 | x4 | x4 | x4 || %129
[K:D] x4 | x4 | x4 | x4 | x4 | x4 | x2[K:bass] x2 | x4 | x4 | x4 | x4 | x4 | x4 | x4 | x4 | x4 | %145
[K:treble] x4 | x4 | x4 | x4 | x4 | x4 | x4 | x4 | AA AA | AA AA | x4 | x4 | x4 | x4 | x4 | x4 | %161
 x4 | x4 | x4 | x4 | z [^A,C] [B,D][CE] | x4 | z [CE] [DF][EG] | x4 | z [^E^G] [FA][GB] | x4 | %171
 z [^GB] [Ac][Bd] | x4 | x4 | x4 | x4 | x4 | x4 | x4 | x4 | x4 | x4 | x4 | x4 | x4 | x4 | x4 | x4 | %188
 x4 | x4 | x4 | x4 | x4 | x4 | x4 | x4 | x4 | x4 | x4 | x4 | x4 | x4 | x4 | x4 | x4 | x4 | x4 | %207
 x4 | x4 | x4 | x4 | x4 | x4 | x4 | x4 | x4 |] %216

